X:842
T:Hog-Eye Man
S:Bruce & Emmett's Drummers and Fifers Guide (1862), p. 84
M:2/4
L:1/8
Q:1/4=100
K:G
%%MIDI program 72
%%MIDI transpose 8
%%MIDI ratio 3 1
d|gg g>a|bb b>a|gg/f/ ga|be ee/f/|g{a}g/f/ ga|
bb b>a|g/a/g/f/ e/f/g/e/|bee::e|d/d/d/d/ d>c|Bd z2|
e/e/e/e/ e>d|be ze/f/|gg/f/ ga|bb b>a|g/a/g/f/ e/f/g/e/|Bee:|
